src/assets/searchResults/deliveryTime.svg

<svg fill="none" height="35" viewBox="0 0 35 35" width="35" xmlns="http://www.w3.org/2000/svg"><g fill="#010485"><path d="m18.1111 2.07099c-3.0467 0-6.0251.90345-8.55842 2.59615-2.53331 1.69271-4.50778 4.09865-5.67374 6.91356-1.16595 2.8148-1.47104 5.9122-.87664 8.9005.5944 2.9882 2.06157 5.733 4.21598 7.8874 2.1544 2.1544 4.89932 3.6217 7.88752 4.2161 2.9883.5944 6.0857.2892 8.9005-.8767 2.8149-1.166 5.2208-3.1404 6.9135-5.6737s2.5962-5.5117 2.5962-8.5585c.0013-2.0234-.3963-4.0271-1.17-5.8967-.7737-1.86959-1.9083-3.56833-3.3391-4.99906-1.4307-1.43073-3.1294-2.56537-4.999-3.33908-1.8696-.7737-3.8734-1.17128-5.8968-1.16997zm0 29.09831c-2.7083 0-5.3558-.8031-7.6077-2.3078-2.25184-1.5047-4.00697-3.6433-5.0434-6.1454-1.03643-2.5022-1.3076-5.2555-.77923-7.9118.52836-2.6563 1.83253-5.09624 3.74761-7.01131 1.91502-1.91507 4.35502-3.21917 7.01132-3.74754s5.4096-.25719 7.9117.77923c2.5022 1.03643 4.6408 2.79154 6.1455 5.04342 1.5046 2.2519 2.3078 4.8993 2.3078 7.6077-.0109 3.6284-1.4571 7.1051-4.0228 9.6708-2.5656 2.5657-6.0423 4.0119-9.6708 4.0227z"/><path d="m24.5303 18.5935h-6.8468v-8.2167c0-.2269-.0901-.4446-.2506-.60507s-.3781-.25058-.6051-.25058c-.2269 0-.4445.09011-.605.25058s-.2506.37817-.2506.60507v9.0284c.0022.2248.0924.4397.2514.5986.1589.159.3738.2493.5986.2515h7.7024c.2247-.0022.4396-.0925.5986-.2515.1589-.1589.2492-.3738.2514-.5986-.0013-.109-.0242-.2167-.0675-.3167-.0433-.1001-.1061-.1904-.1847-.266-.0785-.0755-.1714-.1347-.273-.174-.1017-.0394-.2102-.058-.3191-.055z"/></g></svg>

<svg width="35" height="35" viewBox="0 0 35 35" fill="none" xmlns="http://www.w3.org/2000/svg">
<path d="M18.1111 2.07099C15.0644 2.07099 12.086 2.97444 9.55268 4.66714C7.01937 6.35985 5.0449 8.76579 3.87894 11.5807C2.71299 14.3955 2.4079 17.4929 3.0023 20.4812C3.5967 23.4694 5.06387 26.2142 7.21828 28.3686C9.37268 30.523 12.1176 31.9903 15.1058 32.5847C18.0941 33.1791 21.1915 32.8739 24.0063 31.708C26.8212 30.542 29.2271 28.5676 30.9198 26.0343C32.6125 23.501 33.516 20.5226 33.516 17.4758C33.5173 15.4524 33.1197 13.4487 32.346 11.5791C31.5723 9.70951 30.4377 8.01077 29.0069 6.58004C27.5762 5.14931 25.8775 4.01467 24.0079 3.24096C22.1383 2.46726 20.1345 2.06968 18.1111 2.07099ZM18.1111 31.1693C15.4028 31.1693 12.7553 30.3662 10.5034 28.8615C8.25156 27.3568 6.49643 25.2182 5.46 22.7161C4.42357 20.2139 4.1524 17.4606 4.68077 14.8043C5.20913 12.148 6.5133 9.70806 8.42838 7.79299C10.3434 5.87792 12.7834 4.57382 15.4397 4.04545C18.096 3.51708 20.8493 3.78826 23.3514 4.82468C25.8536 5.86111 27.9922 7.61622 29.4969 9.8681C31.0015 12.12 31.8047 14.7674 31.8047 17.4758C31.7938 21.1042 30.3476 24.5809 27.7819 27.1466C25.2163 29.7123 21.7396 31.1585 18.1111 31.1693Z" fill="#010485"/>
<path d="M24.5303 18.5935H17.6835V10.3768C17.6835 10.1499 17.5934 9.9322 17.4329 9.77173C17.2724 9.61126 17.0548 9.52115 16.8278 9.52115C16.6009 9.52115 16.3833 9.61126 16.2228 9.77173C16.0623 9.9322 15.9722 10.1499 15.9722 10.3768V19.4052C15.9744 19.63 16.0646 19.8449 16.2236 20.0038C16.3825 20.1628 16.5974 20.2531 16.8222 20.2553H24.5246C24.7493 20.2531 24.9642 20.1628 25.1232 20.0038C25.2821 19.8449 25.3724 19.63 25.3746 19.4052C25.3733 19.2962 25.3504 19.1885 25.3071 19.0885C25.2638 18.9884 25.201 18.8981 25.1224 18.8225C25.0439 18.747 24.951 18.6878 24.8494 18.6485C24.7477 18.6091 24.6392 18.5905 24.5303 18.5935Z" fill="#010485"/>
</svg>
